X:1
T:Title
%%score { ( 1 3 ) | ( 2 4 ) }
L:1/8
M:4/4
K:Ab
V:1 treble nm="Grand Piano"
V:3 treble 
V:2 bass 
V:4 bass 
V:1
 z4 z2[Q:1/4=100] [CE]2 | [CE]2 [CA]2 [CA]2 [CA][DB] | [Ec]2 [Ec]2 [Ec]2 [DB][Ec] | %3
 [Fd]2 [FB]2 [EA]2 [EB]2 |[M:3/4] [Ec]6 |[M:1/4] [CE]2 |[M:4/4] [CE]2 [CA]2 [CA]2 [CA][DB] | %7
 [Ec]2 [Ec]2 [Ec]2 [DB][Ec] | [Fd]2 [DFB]2 [CEA]2 [B,EG]2 |[M:3/4] [CEA]6 |[M:1/4] [EG][FA] | %11
[M:4/4] [GB]2 [GB]2 [GB]2 [EG][FA] | [GB]2 [Ac]2 [Gd]3 [GB] | c2 c2 c2 [GB]2 | %14
[M:7/8] [Ac]2 [A=d]2 [Ge]3 |[M:1/4] d2 |[M:4/4] c6 z2 |[M:9/8] d6- d z z | %18
[M:4/4] [CEA]2 [CEA]2 [DEB]2 [B,EG]2 |[M:3/4] [CEA]6 |] %20
V:2
 z4 z2 [A,,A,]2 | [A,,A,]2 [A,,E,]2 [A,,E,]2 [A,,E,]2 | [A,,A,]2 [A,,A,]2 [A,,A,]2 [A,,A,]2 | %3
 [D,A,]2 [D,D]2 [E,C]2 [E,G,]2 |[M:3/4] [A,,A,]6 |[M:1/4] [A,,A,]2 | %6
[M:4/4] [A,,A,]2 [A,,E,]2 [A,,E,]2 [A,,E,]2 | [A,,A,]2 [A,,A,]2 [A,,A,]2 [A,,A,]2 | %8
 [D,A,]2 D,2 E,2 E,2 |[M:3/4] A,,6 |[M:1/4] [E,B,]2 |[M:4/4] [E,E]2 [E,E]2 [E,E]2 [E,B,]2 | %12
 [E,E]2 [E,E]2 [E,B,]3 [E,E] | [EA]2 [A,EA]2 [A,EA]2[K:bass] [E,E]2 | %14
[M:7/8] [A,E]2 [F,B,]2 [E,B,]3 |[M:1/4][K:treble] B2 |[M:4/4] A6 z2 | %17
[M:9/8][K:bass] F6- F D,2[K:treble] |[M:4/4][K:bass] E,2 E,2 E,2 E,2 |[M:3/4] A,,6 |] %20
V:3
 x8 | x8 | x8 | x8 |[M:3/4] x6 |[M:1/4] x2 |[M:4/4] x8 | x8 | x8 |[M:3/4] x6 |[M:1/4] x2 | %11
[M:4/4] x8 | x8 | x8 |[M:7/8] x7 |[M:1/4] x2 |[M:4/4] z2 E2 E2 Bc |[M:9/8] z2 D- D D2- D .[DFc]2 | %18
[M:4/4] x8 |[M:3/4] x6 |] %20
V:4
 x8 | x8 | x8 | x8 |[M:3/4] x6 |[M:1/4] x2 |[M:4/4] x8 | x8 | x8 |[M:3/4] x6 |[M:1/4] x2 | %11
[M:4/4] x8 | x8 | x6[K:bass] x2 |[M:7/8] x7 |[M:1/4][K:treble] x2 |[M:4/4] z2 A,2 A,2 G_G | %17
[M:9/8][K:bass] z2 D,- D, D,2- D, z[K:treble] B |[M:4/4][K:bass] x8 |[M:3/4] x6 |] %20

